dist/assets/images/features/01.svg

<svg width="40" height="40" viewBox="0 0 40 40" fill="none" xmlns="http://www.w3.org/2000/svg">
<path d="M32.903 2.34375C32.0495 2.34375 31.2494 2.57414 30.5593 2.97437V1.17188C30.5593 0.524687 30.0346 0 29.3874 0H10.6374C9.99016 0 9.46547 0.524687 9.46547 1.17188V2.98867C8.76992 2.57953 7.96063 2.34375 7.09695 2.34375C4.51227 2.34375 2.40945 4.44656 2.40945 7.03125C2.40945 9.00273 2.99367 10.9077 4.09891 12.5402C5.98047 15.3193 8.3007 16.0405 10.2206 16.8084C11.3277 19.5653 13.5663 21.7502 16.3589 22.7846L15.4948 28.2812H15.3249C13.3864 28.2812 11.8093 29.8584 11.8093 31.7969V37.6562H10.6374C9.99023 37.6562 9.46555 38.1809 9.46555 38.8281C9.46555 39.4753 9.99023 40 10.6374 40H29.3874C30.0346 40 30.5593 39.4753 30.5593 38.8281C30.5593 38.1809 30.0346 37.6562 29.3874 37.6562H28.2155V31.7969C28.2155 29.8584 26.6384 28.2812 24.6999 28.2812H24.5301L23.666 22.7847C26.4627 21.7487 28.7038 19.5591 29.8092 16.7966C31.6229 16.0711 34.0003 15.3478 35.9012 12.5402C37.0064 10.9077 37.5906 9.00266 37.5906 7.03125C37.5905 4.44656 35.4877 2.34375 32.903 2.34375ZM9.4568 13.9787C6.59945 12.8357 4.7532 10.1087 4.7532 7.03125C4.7532 5.73891 5.80461 4.6875 7.09695 4.6875C8.3893 4.6875 9.4407 5.73891 9.4407 7.03125C9.4407 7.11367 9.44938 7.19398 9.46555 7.27156V12.8906C9.46555 13.2673 9.48578 13.6392 9.52453 14.0058L9.4568 13.9787ZM25.8718 37.6562H14.153V35.3125H25.8718V37.6562ZM24.6999 30.625C25.3461 30.625 25.8718 31.1507 25.8718 31.7969V32.9688H14.153V31.7969C14.153 31.1507 14.6788 30.625 15.3249 30.625C15.9607 30.625 23.2089 30.625 24.6999 30.625ZM17.8673 28.2812L18.6427 23.3487C19.0912 23.4071 19.5483 23.4375 20.0124 23.4375C20.4766 23.4375 20.9337 23.407 21.3821 23.3487L22.1576 28.2812H17.8673ZM28.2155 12.8906C28.2155 17.4138 24.5356 21.0938 20.0124 21.0938C15.4892 21.0938 11.8093 17.4138 11.8093 12.8906V7.03125H28.2155V12.8906ZM28.2155 4.6875H11.8093V2.34375H28.2155V4.6875ZM30.5431 13.9787L30.5015 13.9953C30.5395 13.6322 30.5592 13.2637 30.5592 12.8906V7.03125C30.5593 5.73891 31.6107 4.6875 32.903 4.6875C34.1954 4.6875 35.2468 5.73891 35.2468 7.03125C35.2468 10.1087 33.4005 12.8358 30.5431 13.9787Z" fill="#3A3A3A"/>
</svg>

<svg width="40" height="40" viewBox="0 0 40 40" fill="none" xmlns="http://www.w3.org/2000/svg"><path d="M32.903 2.344a4.66 4.66 0 0 0-2.344.63V1.172A1.171 1.171 0 0 0 29.387 0h-18.75C9.99 0 9.465.525 9.465 1.172v1.817a4.657 4.657 0 0 0-2.368-.645A4.693 4.693 0 0 0 2.409 7.03a9.79 9.79 0 0 0 1.69 5.51c1.881 2.778 4.202 3.5 6.122 4.267a10.603 10.603 0 0 0 6.138 5.977l-.864 5.496h-.17a3.52 3.52 0 0 0-3.516 3.516v5.86h-1.172a1.172 1.172 0 0 0 0 2.343h18.75a1.172 1.172 0 0 0 0-2.344h-1.172v-5.86A3.52 3.52 0 0 0 24.7 28.28h-.17l-.864-5.496a10.604 10.604 0 0 0 6.143-5.988c1.814-.726 4.191-1.45 6.092-4.257a9.79 9.79 0 0 0 1.69-5.509 4.693 4.693 0 0 0-4.688-4.687ZM9.457 13.979A7.447 7.447 0 0 1 4.753 7.03a2.346 2.346 0 0 1 2.344-2.343A2.346 2.346 0 0 1 9.44 7.03c0 .083.008.163.025.24v5.62c0 .376.02.748.059 1.115l-.068-.027Zm16.415 23.677H14.153v-2.343h11.719v2.343ZM24.7 30.625c.646 0 1.172.526 1.172 1.172v1.172H14.153v-1.172c0-.646.526-1.172 1.172-1.172H24.7Zm-6.833-2.344.776-4.932a10.603 10.603 0 0 0 2.74 0l.775 4.932h-4.29Zm10.348-15.39c0 4.523-3.68 8.203-8.203 8.203s-8.203-3.68-8.203-8.203V7.03h16.407v5.86Zm0-8.204H11.81V2.345h16.407v2.344Zm2.328 9.292-.041.016c.038-.363.057-.731.057-1.104V7.03a2.347 2.347 0 0 1 2.344-2.343 2.346 2.346 0 0 1 2.344 2.343 7.447 7.447 0 0 1-4.704 6.948Z" fill="#3A3A3A"/></svg>
